more.svg

<svg fill="currentColor" viewBox="0 0 24 24"><path d="M19 13.5a1.5 1.5 0 0 1-1.5-1.5 1.5 1.5 0 0 1 1.5-1.5 1.5 1.5 0 0 1 1.5 1.5 1.5 1.5 0 0 1-1.5 1.5m-5 0a1.5 1.5 0 0 1-1.5-1.5 1.5 1.5 0 0 1 1.5-1.5 1.5 1.5 0 0 1 1.5 1.5 1.5 1.5 0 0 1-1.5 1.5m-5 0A1.5 1.5 0 0 1 7.5 12 1.5 1.5 0 0 1 9 10.5a1.5 1.5 0 0 1 1.5 1.5A1.5 1.5 0 0 1 9 13.5M22 3H7c-.69 0-1.23.35-1.59.88L0 12l5.41 8.11c.36.53.96.89 1.65.89H22a2 2 0 0 0 2-2V5a2 2 0 0 0-2-2"/></svg>

<svg  viewBox="0 0 24 24" fill="currentColor"><path  d="M19,13.5A1.5,1.5 0 0,1 17.5,12A1.5,1.5 0 0,1 19,10.5A1.5,1.5 0 0,1 20.5,12A1.5,1.5 0 0,1 19,13.5M14,13.5A1.5,1.5 0 0,1 12.5,12A1.5,1.5 0 0,1 14,10.5A1.5,1.5 0 0,1 15.5,12A1.5,1.5 0 0,1 14,13.5M9,13.5A1.5,1.5 0 0,1 7.5,12A1.5,1.5 0 0,1 9,10.5A1.5,1.5 0 0,1 10.5,12A1.5,1.5 0 0,1 9,13.5M22,3H7C6.31,3 5.77,3.35 5.41,3.88L0,12L5.41,20.11C5.77,20.64 6.37,21 7.06,21H22A2,2 0 0,0 24,19V5C24,3.89 23.1,3 22,3Z"/></svg>
